public/svg/envelope.svg

<svg enable-background="new 0 0 36 26" viewBox="0 0 36 26" xmlns="http://www.w3.org/2000/svg" xmlns:xlink="http://www.w3.org/1999/xlink"><linearGradient id="a" gradientTransform="matrix(1 0 0 -1 0 27.2756)" gradientUnits="userSpaceOnUse" x1="17.2809" x2="18.0306" y1="27.4463" y2="1.2068"><stop offset="0" stop-color="#959595"/><stop offset="0" stop-color="#4db9ed"/><stop offset="1" stop-color="#5a69e0"/></linearGradient><path d="m31.7.2h-28.1c-1.8 0-3.2 1.5-3.2 3.1v19.1c0 1.8 1.5 3.2 3.2 3.2h28.2c1.8 0 3.2-1.5 3.2-3.1v-19.2c.1-1.6-1.4-3.1-3.3-3.1zm0 2.2c.2 0 .3 0 .4.1l-14.4 12.2-14.5-12.3h.4zm0 21.2h-28.1c-.6 0-1.1-.5-1.1-1.1v-17.9l14.5 12.4c.2.2.5.3.7.3s.5-.1.7-.3l14.5-12.4v17.9c0 .6-.5 1.1-1.2 1.1z" fill="url(#a)" stroke="#fff" stroke-miterlimit="10" stroke-width=".4"/></svg>

<?xml version="1.0" encoding="utf-8"?>
<!-- Generator: Adobe Illustrator 24.0.3, SVG Export Plug-In . SVG Version: 6.00 Build 0)  -->
<svg version="1.1" id="Calque_1" xmlns="http://www.w3.org/2000/svg" xmlns:xlink="http://www.w3.org/1999/xlink" x="0px" y="0px"
	 viewBox="0 0 36 26" style="enable-background:new 0 0 36 26;" xml:space="preserve">
<style type="text/css">
	.st0{fill:url(#Shape_1_);stroke:#FFFFFF;stroke-width:0.4;stroke-miterlimit:10;}
</style>
<title>envelope</title>
<g id="Page-1">
	<g id="workers-personnal-desktop" transform="translate(-748.000000, -855.000000)">
		<g id="envelope" transform="translate(748.000000, 855.000000)">
			
				<linearGradient id="Shape_1_" gradientUnits="userSpaceOnUse" x1="17.2809" y1="27.4463" x2="18.0306" y2="1.2068" gradientTransform="matrix(1 0 0 -1 0 27.2756)">
				<stop  offset="0" style="stop-color:#959595"/>
				<stop  offset="0" style="stop-color:#4DB9ED"/>
				<stop  offset="1" style="stop-color:#5A69E0"/>
			</linearGradient>
			<path id="Shape" class="st0" d="M31.7,0.2H3.6c-1.8,0-3.2,1.5-3.2,3.1v19.1c0,1.8,1.5,3.2,3.2,3.2h28.2c1.8,0,3.2-1.5,3.2-3.1
				V3.3C35.1,1.7,33.6,0.2,31.7,0.2z M31.7,2.4c0.2,0,0.3,0,0.4,0.1L17.7,14.7L3.2,2.4c0.1,0,0.3,0,0.4,0H31.7z M31.7,23.6H3.6
				c-0.6,0-1.1-0.5-1.1-1.1V4.6L17,17c0.2,0.2,0.5,0.3,0.7,0.3s0.5-0.1,0.7-0.3L32.9,4.6v17.9C32.9,23.1,32.4,23.6,31.7,23.6z"/>
		</g>
	</g>
</g>
</svg>
